web/ui/src/components/theme/workflow/svgs/full.svg

<svg height="24" viewBox="0 0 24 24" width="24" xmlns="http://www.w3.org/2000/svg"><g fill="none"><path d="m0 0h24v24h-24z" fill="#000" opacity="0"/><path d="m20.0357143 22h-16.07142858c-1.07142857 0-1.96428572-.8928571-1.96428572-1.9642857v-16.07142858c0-1.07142857.89285715-1.96428572 1.96428572-1.96428572h16.07142858c1.0714286 0 1.9642857.89285715 1.9642857 1.96428572v16.07142858c0 1.0714286-.8928571 1.9642857-1.9642857 1.9642857zm-16.13571429-19c-.504 0-.90000001.39600001-.90000001.90000001v16.19999999c0 .504.39600001.9.90000001.9h16.19999999c.504 0 .9-.396.9-.9v-16.19999999c0-.504-.396-.90000001-.9-.90000001zm14.60236969 6.24644551c-.2654029 0-.4976304-.2322275-.4976304-.49763033v-1.95734599c0-.43127962-.3649289-.79620853-.7962085-.79620853h-1.957346c-.2654028 0-.4976303-.23222749-.4976303-.49763033s.2322275-.49763033.4976303-.49763033h1.957346c.9952607 0 1.7914692.79620853 1.7914692 1.79146919v1.95734599c0 .26540283-.1990521.49763033-.4976303.49763033zm-1.2938389 9.75355449h-1.957346c-.2654028 0-.4976303-.2322275-.4976303-.4976303 0-.2654029.2322275-.4976304.4976303-.4976304h1.957346c.4312796 0 .7962085-.3649289.7962085-.7962085v-1.957346c0-.2654028.2322275-.4976303.4976304-.4976303.2654028 0 .4976303.2322275.4976303.4976303v1.957346c0 .9952607-.7962085 1.7914692-1.7914692 1.7914692zm-8.45971562 0h-1.95734599c-.99526066 0-1.79146919-.7962085-1.79146919-1.7914692v-1.957346c0-.2654028.23222749-.4976303.49763033-.4976303s.49763033.2322275.49763033.4976303v1.957346c0 .4312796.36492891.7962085.79620853.7962085h1.95734599c.26540283 0 .49763033.2322275.49763033.4976304 0 .2654028-.2322275.4976303-.49763033.4976303zm-3.25118485-9.75355449c-.26540284 0-.49763033-.2322275-.49763033-.49763033v-1.95734599c0-.99526066.79620853-1.79146919 1.79146919-1.79146919h1.95734599c.26540283 0 .49763033.23222749.49763033.49763033s-.2322275.49763033-.49763033.49763033h-1.95734599c-.43127962 0-.79620853.36492891-.79620853.79620853v1.95734599c0 .26540283-.23222749.49763033-.49763033.49763033z" fill="#526579" stroke="#526579" stroke-width=".2"/></g></svg>

<?xml version="1.0" encoding="UTF-8"?>
<svg width="24px" height="24px" viewBox="0 0 24 24" version="1.1" xmlns="http://www.w3.org/2000/svg" xmlns:xlink="http://www.w3.org/1999/xlink">
    <title>全屏-放大</title>
    <g id="页面-1" stroke="none" stroke-width="1" fill="none" fill-rule="evenodd">
        <g id="建木CI-项目详情页（流程/管道图）" transform="translate(-1553.000000, -1122.000000)" fill-rule="nonzero">
            <g id="全屏-放大" transform="translate(1553.000000, 1122.000000)">
                <rect id="矩形" fill="#000000" opacity="0" x="0" y="0" width="24" height="24"></rect>
                <path d="M20.0357143,22 L3.96428572,22 C2.89285715,22 2,21.1071429 2,20.0357143 L2,3.96428572 C2,2.89285715 2.89285715,2 3.96428572,2 L20.0357143,2 C21.1071429,2 22,2.89285715 22,3.96428572 L22,20.0357143 C22,21.1071429 21.1071429,22 20.0357143,22 Z M3.90000001,3 C3.39600001,3 3,3.39600001 3,3.90000001 L3,20.1 C3,20.604 3.39600001,21 3.90000001,21 L20.1,21 C20.604,21 21,20.604 21,20.1 L21,3.90000001 C21,3.39600001 20.604,3 20.1,3 L3.90000001,3 Z M18.5023697,9.24644551 C18.2369668,9.24644551 18.0047393,9.01421801 18.0047393,8.74881518 L18.0047393,6.79146919 C18.0047393,6.36018957 17.6398104,5.99526066 17.2085308,5.99526066 L15.2511848,5.99526066 C14.985782,5.99526066 14.7535545,5.76303317 14.7535545,5.49763033 C14.7535545,5.23222749 14.985782,5 15.2511848,5 L17.2085308,5 C18.2037915,5 19,5.79620853 19,6.79146919 L19,8.74881518 C19,9.01421801 18.8009479,9.24644551 18.5023697,9.24644551 L18.5023697,9.24644551 Z M17.2085308,19 L15.2511848,19 C14.985782,19 14.7535545,18.7677725 14.7535545,18.5023697 C14.7535545,18.2369668 14.985782,18.0047393 15.2511848,18.0047393 L17.2085308,18.0047393 C17.6398104,18.0047393 18.0047393,17.6398104 18.0047393,17.2085308 L18.0047393,15.2511848 C18.0047393,14.985782 18.2369668,14.7535545 18.5023697,14.7535545 C18.7677725,14.7535545 19,14.985782 19,15.2511848 L19,17.2085308 C19,18.2037915 18.2037915,19 17.2085308,19 L17.2085308,19 Z M8.74881518,19 L6.79146919,19 C5.79620853,19 5,18.2037915 5,17.2085308 L5,15.2511848 C5,14.985782 5.23222749,14.7535545 5.49763033,14.7535545 C5.76303317,14.7535545 5.99526066,14.985782 5.99526066,15.2511848 L5.99526066,17.2085308 C5.99526066,17.6398104 6.36018957,18.0047393 6.79146919,18.0047393 L8.74881518,18.0047393 C9.01421801,18.0047393 9.24644551,18.2369668 9.24644551,18.5023697 C9.24644551,18.7677725 9.01421801,19 8.74881518,19 L8.74881518,19 Z M5.49763033,9.24644551 C5.23222749,9.24644551 5,9.01421801 5,8.74881518 L5,6.79146919 C5,5.79620853 5.79620853,5 6.79146919,5 L8.74881518,5 C9.01421801,5 9.24644551,5.23222749 9.24644551,5.49763033 C9.24644551,5.76303317 9.01421801,5.99526066 8.74881518,5.99526066 L6.79146919,5.99526066 C6.36018957,5.99526066 5.99526066,6.36018957 5.99526066,6.79146919 L5.99526066,8.74881518 C5.99526066,9.01421801 5.76303317,9.24644551 5.49763033,9.24644551 Z" id="形状" stroke="#526579" stroke-width="0.2" fill="#526579"></path>
            </g>
        </g>
    </g>
</svg>
